X:2
T:Joe Bane's
R:reel
D:Double Barrelled, John Skelton & Kieran O'Hare
Z:Paul Stewart Cranford (P.S.C.), <http://www.cranfordpub.com>
L:1/8
Q:333
M:C|
K:G
GABA GABd|g2 fg edBA|~G2 BA GABG|ABAG FDGA|
BGFG ED (B/c/d)|g2 fg edBA|G2 BA GABG|AGFA G3 z:|
|:dg{a}gf gfed|ea{b}ag agfg|fded fded|eg{a}gf gfed|
BGFG ED (B/c/d)|g2 fg edBA|G2 BA GABG|AGFA G3 z:|
